images/avaluse.svg

<svg height="250" viewBox="0 0 250 250" width="250" xmlns="http://www.w3.org/2000/svg"><path d="m195.570312 133.78125c-.785156-2.402344-2.023437-4.660156-2.902343-7.015625-2.628907-7.0625-6.203125-13.660156-10.015625-20.089844-3.132813-5.285156-6.605469-10.390625-10.3125-15.34375-3.738282-4.992187-8.042969-9.4375-12.171875-14.0625-.480469-.539062-.738281-.617187-1.058594.3125.5 2.1875.304687 2.328125.316406 3.511719.0625 6.214844-.488281 12.378906-1.480469 18.5-1.070312 6.613281-2.746093 13.089844-4.851562 19.453125-.054688.074219-.0625.152344-.027344.238281-.097656.203125-.21875.402344-.292968.613282-3.066407 8.992187-6.945313 17.632812-11.289063 26.066406-.171875.335937-.207031.917968-.769531.832031-.421875-.0625-.691406-.421875-.890625-.808594-.359375-.691406-.695313-1.402343-1.109375-2.070312-2.15625-3.496094-4.222656-7.050781-6.097656-10.707031-1.273438-2.484376-2.207032-4.960938-.347657-7.6875.550781-.8125.820313-1.914063 1.230469-2.878907 4.441406-10.53125 7.273438-21.480469 8.417969-32.847656.558593-5.585937.289062-11.160156-.765625-16.691406-.796875-4.1875-2.636719-7.902344-5.394532-11.058594-3.457031-3.960937-8.128906-4.691406-13.121093-4.234375-3.984375.363281-7.097657 2.433594-9.371094 5.453125-3.257813 4.316406-4.722656 9.417969-5.175781 14.800781-.804688 9.5625.410156 18.941406 2.871094 28.140625 3.226562 12.066407 8.007812 23.542969 14.253906 34.355469 6.015625 10.414062 12.894531 20.226562 21.273437 28.921875 1.234375 1.28125 2.351563 2.765625 3.671875 3.867187 2.964844 2.472657 5.710938 5.199219 8.855469 7.472657 6.558594 4.742187 13.363281 8.894531 21.421875 10.664062 7.859375 1.730469 16.050781-1.15625 19.058594-10.457031 1.96875-6.085938 2.492187-12.292969 2.078125-18.625-.640625-9.828125-2.953125-19.308594-6.003907-28.625zm0 0" fill="#6b68f2"/><path d="m249.996094 1.304688c.003906-.996094-.148438-1.304688-1.246094-1.304688-82.484375.03125-164.964844.03125-247.445312.0078125-.996094 0-1.304688.1484375-1.304688 1.2460935.03125 82.484375.03125 164.964844.0078125 247.449219 0 .992187.1484375 1.304687 1.2460935 1.300781 41.242188-.035156 82.484375-.027344 123.726563-.027344 41.238281 0 82.480469-.003906 123.71875.023438 1 0 1.304687-.152344 1.304687-1.25-.03125-82.484375-.03125-164.964844-.007812-247.445312zm-31.367188 168.570312c-.332031 5.359375-.917968 10.714844-2.722656 15.808594-2.238281 6.324218-5.378906 12.183594-10.683594 16.492187-4.078125 3.3125-8.742187 5.65625-14.011718 6.503907-3.988282.636718-8.046876.902343-12.027344.242187-2.476563-.410156-4.960938-1-7.402344-1.796875-6.6875-2.191406-12.785156-5.496094-18.574219-9.390625-5.472656-3.683594-10.445312-8-15.277343-12.488281-3.625-3.363282-7.101563-6.910156-10.238282-10.6875-5.035156-6.0625-9.859375-12.3125-13.660156-19.300782-2.199219-4.046874-4.660156-7.960937-6.855469-12.023437-1.449219-2.691406-2.671875-5.480469-3.960937-8.246094-3.386719-7.253906-6.039063-14.777343-8.257813-22.453125-.800781-2.769531-1.546875-5.566406-2.242187-8.359375-.695313-2.789062-.820313-5.71875-1.25-8.574219-.941406-6.285156-1.015625-12.578124-.464844-18.894531.007812-.074219-.074219-.15625-.253906-.5-3.472656 3.851563-7.046875 7.46875-10.191406 11.480469-.003907-.003906-.019532.019531-.019532.019531-2.09375 2.035157-3.617187 4.53125-5.4375 6.789063-2.355468 2.921875-4.125 6.246094-6.148437 9.386718-3.257813 5.066407-6.066407 10.394532-8.597657 15.855469-2.695312 5.8125-5.261718 11.6875-7.125 17.828125-3.210937 10.582032-5.363281 21.363282-4.761718 32.476563.292968 5.449219 1.191406 10.875 4.414062 15.558593 3.550782 5.160157 8.621094 6.964844 14.601563 6.199219 8.359375-1.070312 15.410156-5.179687 22.125-9.996093 4.558593-3.273438 8.589843-7.121094 12.628906-10.980469 1.539063-1.46875 2.878906-3.089844 4.210937-4.734375 1.011719-1.246094 1.421876-1.230469 2.175782.140625 2.378906 4.359375 5.660156 8.105469 8.359375 12.246093.535156.820313.421875 1.296876-.164063 1.910157-5.746094 6.019531-11.90625 11.578125-18.707031 16.371093-4.394531 3.09375-9.039063 5.796876-13.953125 8.035157-3.832031 1.742187-7.851562 3.054687-11.90625 3.792969-5.117188.929687-10.417969 1.089843-15.503906-.636719-.933594-.3125-1.90625-.230469-2.78125-.542969-3.785156-1.359375-7.054688-3.527344-10.089844-6.1875-6.464844-5.667969-9.542969-13.078125-11.246094-21.191406-1.964844-9.347656-1.65625-18.746094-.238281-28.144532.792969-5.265624 2.136719-10.398437 3.398437-15.5625 1.480469-6.078124 3.925782-11.820312 6.160157-17.625 2.777343-7.226562 6.480469-14.011718 10.449219-20.648437 5.277343-8.832031 11.332031-17.121094 18.136718-24.824219 5.816406-6.585937 11.957032-12.894531 18.957032-18.257812 6.730468-5.15625 14-9.425782 22.121093-12.03125 3.164063-1.015625 6.417969-1.625 9.765625-2.019532 7.585938-.890624 14.566406 1.015626 21.433594 3.789063 3.292969 1.328125 6.523438 2.816406 9.519531 4.75 4.53125 2.921875 8.921875 6.023437 13.070313 9.503906 4.429687 3.714844 8.554687 7.75 12.335937 12.078125 2.867188 3.277344 5.792969 6.527344 8.386719 10.066406 2.566406 3.503907 5.078125 7.039063 7.511719 10.632813 3.863281 5.714844 7.09375 11.78125 10.21875 17.921875 3.929687 7.730469 7.054687 15.785156 9.640625 24.042969 1.671875 5.332031 2.84375 10.789062 3.804687 16.308593 1.144531 6.59375 1.738281 13.195313 1.328125 19.867188zm0 0" fill="#6b68f2"/><path d="m213.496094 133.699219c-2.585938-8.257813-5.710938-16.308594-9.640625-24.042969-3.125-6.140625-6.355469-12.203125-10.222657-17.917969-2.429687-3.597656-4.941406-7.132812-7.511718-10.636719-2.589844-3.539062-5.515625-6.789062-8.382813-10.066406-3.785156-4.328125-7.90625-8.363281-12.335937-12.078125-4.148438-3.476562-8.539063-6.582031-13.074219-9.503906-2.992187-1.933594-6.222656-3.417969-9.515625-4.75-6.867188-2.769531-13.851562-4.679687-21.433594-3.789063-3.347656.394532-6.605468 1.003907-9.769531 2.019532-8.121094 2.605468-15.386719 6.875-22.117187 12.035156-7 5.363281-13.140626 11.667969-18.960938 18.257812-6.804688 7.703126-12.855469 15.992188-18.136719 24.824219-3.964843 6.636719-7.667969 13.417969-10.449219 20.644531-2.230468 5.808594-4.675781 11.546876-6.160156 17.628907-1.257812 5.160156-2.601562 10.292969-3.394531 15.558593-1.417969 9.398438-1.726563 18.796876.238281 28.144532 1.703125 8.113281 4.78125 15.527344 11.246094 21.191406 3.035156 2.660156 6.304688 4.828125 10.089844 6.1875.875.3125 1.847656.230469 2.777344.546875 5.089843 1.726563 10.390624 1.5625 15.503906.632813 4.058594-.734376 8.078125-2.046876 11.910156-3.792969 4.914062-2.238281 9.558594-4.941407 13.953125-8.035157 6.800781-4.792968 12.960937-10.351562 18.707031-16.371093.585938-.613281.699219-1.089844.164063-1.910157-2.699219-4.140624-5.980469-7.882812-8.363281-12.246093-.75-1.371094-1.164063-1.386719-2.171876-.140625-1.335937 1.644531-2.675781 3.265625-4.210937 4.734375-4.039063 3.859375-8.070313 7.707031-12.628906 10.980469-6.714844 4.820312-13.765625 8.925781-22.125 9.996093-5.980469.765625-11.050781-1.039062-14.601563-6.195312-3.222656-4.6875-4.121094-10.109375-4.414062-15.5625-.601563-11.113281 1.550781-21.894531 4.761718-32.476563 1.863282-6.136718 4.429688-12.015625 7.125-17.824218 2.53125-5.460938 5.339844-10.792969 8.597657-15.855469 2.023437-3.144531 3.792969-6.464844 6.148437-9.390625 1.820313-2.257813 3.34375-4.753906 5.4375-6.789063 0 0 .015625-.019531.015625-.019531 3.148438-4.011719 6.722657-7.628906 10.195313-11.476562.179687.339843.257812.421874.253906.496093-.550781 6.316407-.476562 12.613281.464844 18.894531.429687 2.859376.554687 5.785157 1.25 8.578126.695312 2.792968 1.441406 5.585937 2.242187 8.355468 2.21875 7.679688 4.871094 15.199219 8.253907 22.453125 1.292968 2.765625 2.515624 5.558594 3.964843 8.246094 2.195313 4.0625 4.65625 7.976563 6.855469 12.023437 3.800781 6.992188 8.625 13.242188 13.660156 19.300782 3.132813 3.777344 6.613282 7.324218 10.238282 10.691406 4.828124 4.484375 9.804687 8.804688 15.277343 12.484375 5.789063 3.894531 11.882813 7.199219 18.574219 9.390625 2.441406.800781 4.925781 1.386719 7.402344 1.800781 3.976562.660157 8.035156.394531 12.027344-.246093 5.269531-.84375 9.933593-3.191407 14.011718-6.503907 5.300782-4.304687 8.445313-10.167969 10.683594-16.492187 1.800781-5.089844 2.386719-10.445313 2.71875-15.808594.414062-6.671875-.179688-13.273438-1.328125-19.867188-.957031-5.519531-2.132813-10.976562-3.800781-16.308593zm-14 47.332031c-3.007813 9.304688-11.199219 12.1875-19.058594 10.457031-8.058594-1.769531-14.867188-5.921875-21.425781-10.664062-3.140625-2.273438-5.886719-5-8.851563-7.472657-1.320312-1.101562-2.4375-2.585937-3.671875-3.867187-8.378906-8.695313-15.257812-18.503906-21.273437-28.917969-6.25-10.816406-11.027344-22.292968-14.253906-34.359375-2.460938-9.199219-3.675782-18.578125-2.871094-28.140625.453125-5.382812 1.917968-10.480468 5.175781-14.800781 2.273437-3.015625 5.386719-5.085937 9.371094-5.453125 4.992187-.457031 9.664062.277344 13.121093 4.234375 2.757813 3.15625 4.59375 6.871094 5.394532 11.058594 1.054687 5.53125 1.324218 11.105469.761718 16.691406-1.140624 11.367187-3.972656 22.316406-8.414062 32.847656-.410156.96875-.679688 2.066407-1.234375 2.878907-1.855469 2.726562-.921875 5.203124.351563 7.6875 1.875 3.660156 3.9375 7.210937 6.097656 10.707031.410156.667969.75 1.378906 1.109375 2.070312.199219.386719.46875.746094.890625.808594.5625.085937.597656-.496094.769531-.828125 4.34375-8.4375 8.21875-17.078125 11.289063-26.070312.074218-.210938.195312-.40625.292968-.613282-.035156-.082031-.027344-.164062.027344-.238281 2.105469-6.363281 3.777344-12.839844 4.851562-19.453125.988282-6.121094 1.542969-12.285156 1.480469-18.5-.011719-1.183594.183594-1.324219-.320312-3.511719.324219-.929687.582031-.851562 1.0625-.3125 4.125 4.625 8.433593 9.070313 12.171875 14.0625 3.707031 4.953125 7.179687 10.058594 10.3125 15.34375 3.8125 6.429688 7.386718 13.027344 10.015625 20.089844.878906 2.355469 2.117187 4.617187 2.902343 7.015625 3.050782 9.316406 5.359376 18.796875 6.003907 28.625.414062 6.332031-.109375 12.539062-2.078125 18.625zm0 0" fill="#fff"/></svg>

<!-- Generator: Adobe Illustrator 16.0.2, SVG Export Plug-In . SVG Version: 6.00 Build 0)  -->
<svg xmlns="http://www.w3.org/2000/svg" xmlns:xlink="http://www.w3.org/1999/xlink" width="250px" height="250px" viewBox="0 0 250 250" version="1.1">
<g id="surface1">
<path style=" stroke:none;fill-rule:nonzero;fill:rgb(41.960785%,40.784314%,94.901961%);fill-opacity:1;" d="M 195.570312 133.78125 C 194.785156 131.378906 193.546875 129.121094 192.667969 126.765625 C 190.039062 119.703125 186.464844 113.105469 182.652344 106.675781 C 179.519531 101.390625 176.046875 96.285156 172.339844 91.332031 C 168.601562 86.339844 164.296875 81.894531 160.167969 77.269531 C 159.6875 76.730469 159.429688 76.652344 159.109375 77.582031 C 159.609375 79.769531 159.414062 79.910156 159.425781 81.09375 C 159.488281 87.308594 158.9375 93.472656 157.945312 99.59375 C 156.875 106.207031 155.199219 112.683594 153.09375 119.046875 C 153.039062 119.121094 153.03125 119.199219 153.066406 119.285156 C 152.96875 119.488281 152.847656 119.6875 152.773438 119.898438 C 149.707031 128.890625 145.828125 137.53125 141.484375 145.964844 C 141.3125 146.300781 141.277344 146.882812 140.714844 146.796875 C 140.292969 146.734375 140.023438 146.375 139.824219 145.988281 C 139.464844 145.296875 139.128906 144.585938 138.714844 143.917969 C 136.558594 140.421875 134.492188 136.867188 132.617188 133.210938 C 131.34375 130.726562 130.410156 128.25 132.269531 125.523438 C 132.820312 124.710938 133.089844 123.609375 133.5 122.644531 C 137.941406 112.113281 140.773438 101.164062 141.917969 89.796875 C 142.476562 84.210938 142.207031 78.636719 141.152344 73.105469 C 140.355469 68.917969 138.515625 65.203125 135.757812 62.046875 C 132.300781 58.085938 127.628906 57.355469 122.636719 57.8125 C 118.652344 58.175781 115.539062 60.246094 113.265625 63.265625 C 110.007812 67.582031 108.542969 72.683594 108.089844 78.066406 C 107.285156 87.628906 108.5 97.007812 110.960938 106.207031 C 114.1875 118.273438 118.96875 129.75 125.214844 140.5625 C 131.230469 150.976562 138.109375 160.789062 146.488281 169.484375 C 147.722656 170.765625 148.839844 172.25 150.160156 173.351562 C 153.125 175.824219 155.871094 178.550781 159.015625 180.824219 C 165.574219 185.566406 172.378906 189.71875 180.4375 191.488281 C 188.296875 193.21875 196.488281 190.332031 199.496094 181.03125 C 201.464844 174.945312 201.988281 168.738281 201.574219 162.40625 C 200.933594 152.578125 198.621094 143.097656 195.570312 133.78125 Z M 195.570312 133.78125 "/>
<path style=" stroke:none;fill-rule:nonzero;fill:rgb(41.960785%,40.784314%,94.901961%);fill-opacity:1;" d="M 249.996094 1.304688 C 250 0.308594 249.847656 0 248.75 0 C 166.265625 0.03125 83.785156 0.03125 1.304688 0.0078125 C 0.308594 0.0078125 0 0.15625 0 1.253906 C 0.03125 83.738281 0.03125 166.21875 0.0078125 248.703125 C 0.0078125 249.695312 0.15625 250.007812 1.253906 250.003906 C 42.496094 249.96875 83.738281 249.976562 124.980469 249.976562 C 166.21875 249.976562 207.460938 249.972656 248.699219 250 C 249.699219 250 250.003906 249.847656 250.003906 248.75 C 249.972656 166.265625 249.972656 83.785156 249.996094 1.304688 Z M 218.628906 169.875 C 218.296875 175.234375 217.710938 180.589844 215.90625 185.683594 C 213.667969 192.007812 210.527344 197.867188 205.222656 202.175781 C 201.144531 205.488281 196.480469 207.832031 191.210938 208.679688 C 187.222656 209.316406 183.164062 209.582031 179.183594 208.921875 C 176.707031 208.511719 174.222656 207.921875 171.78125 207.125 C 165.09375 204.933594 158.996094 201.628906 153.207031 197.734375 C 147.734375 194.050781 142.761719 189.734375 137.929688 185.246094 C 134.304688 181.882812 130.828125 178.335938 127.691406 174.558594 C 122.65625 168.496094 117.832031 162.246094 114.03125 155.257812 C 111.832031 151.210938 109.371094 147.296875 107.175781 143.234375 C 105.726562 140.542969 104.503906 137.753906 103.214844 134.988281 C 99.828125 127.734375 97.175781 120.210938 94.957031 112.535156 C 94.15625 109.765625 93.410156 106.96875 92.714844 104.175781 C 92.019531 101.386719 91.894531 98.457031 91.464844 95.601562 C 90.523438 89.316406 90.449219 83.023438 91 76.707031 C 91.007812 76.632812 90.925781 76.550781 90.746094 76.207031 C 87.273438 80.058594 83.699219 83.675781 80.554688 87.6875 C 80.550781 87.683594 80.535156 87.707031 80.535156 87.707031 C 78.441406 89.742188 76.917969 92.238281 75.097656 94.496094 C 72.742188 97.417969 70.972656 100.742188 68.949219 103.882812 C 65.691406 108.949219 62.882812 114.277344 60.351562 119.738281 C 57.65625 125.550781 55.089844 131.425781 53.226562 137.566406 C 50.015625 148.148438 47.863281 158.929688 48.464844 170.042969 C 48.757812 175.492188 49.65625 180.917969 52.878906 185.601562 C 56.429688 190.761719 61.5 192.566406 67.480469 191.800781 C 75.839844 190.730469 82.890625 186.621094 89.605469 181.804688 C 94.164062 178.53125 98.195312 174.683594 102.234375 170.824219 C 103.773438 169.355469 105.113281 167.734375 106.445312 166.089844 C 107.457031 164.84375 107.867188 164.859375 108.621094 166.230469 C 111 170.589844 114.28125 174.335938 116.980469 178.476562 C 117.515625 179.296875 117.402344 179.773438 116.816406 180.386719 C 111.070312 186.40625 104.910156 191.964844 98.109375 196.757812 C 93.714844 199.851562 89.070312 202.554688 84.15625 204.792969 C 80.324219 206.535156 76.304688 207.847656 72.25 208.585938 C 67.132812 209.515625 61.832031 209.675781 56.746094 207.949219 C 55.8125 207.636719 54.839844 207.71875 53.964844 207.40625 C 50.179688 206.046875 46.910156 203.878906 43.875 201.21875 C 37.410156 195.550781 34.332031 188.140625 32.628906 180.027344 C 30.664062 170.679688 30.972656 161.28125 32.390625 151.882812 C 33.183594 146.617188 34.527344 141.484375 35.789062 136.320312 C 37.269531 130.242188 39.714844 124.5 41.949219 118.695312 C 44.726562 111.46875 48.429688 104.683594 52.398438 98.046875 C 57.675781 89.214844 63.730469 80.925781 70.535156 73.222656 C 76.351562 66.636719 82.492188 60.328125 89.492188 54.964844 C 96.222656 49.808594 103.492188 45.539062 111.613281 42.933594 C 114.777344 41.917969 118.03125 41.308594 121.378906 40.914062 C 128.964844 40.023438 135.945312 41.929688 142.8125 44.703125 C 146.105469 46.03125 149.335938 47.519531 152.332031 49.453125 C 156.863281 52.375 161.253906 55.476562 165.402344 58.957031 C 169.832031 62.671875 173.957031 66.707031 177.738281 71.035156 C 180.605469 74.3125 183.53125 77.5625 186.125 81.101562 C 188.691406 84.605469 191.203125 88.140625 193.636719 91.734375 C 197.5 97.449219 200.730469 103.515625 203.855469 109.65625 C 207.785156 117.386719 210.910156 125.441406 213.496094 133.699219 C 215.167969 139.03125 216.339844 144.488281 217.300781 150.007812 C 218.445312 156.601562 219.039062 163.203125 218.628906 169.875 Z M 218.628906 169.875 "/>
<path style=" stroke:none;fill-rule:nonzero;fill:rgb(100%,100%,100%);fill-opacity:1;" d="M 213.496094 133.699219 C 210.910156 125.441406 207.785156 117.390625 203.855469 109.65625 C 200.730469 103.515625 197.5 97.453125 193.632812 91.738281 C 191.203125 88.140625 188.691406 84.605469 186.121094 81.101562 C 183.53125 77.5625 180.605469 74.3125 177.738281 71.035156 C 173.953125 66.707031 169.832031 62.671875 165.402344 58.957031 C 161.253906 55.480469 156.863281 52.375 152.328125 49.453125 C 149.335938 47.519531 146.105469 46.035156 142.8125 44.703125 C 135.945312 41.933594 128.960938 40.023438 121.378906 40.914062 C 118.03125 41.308594 114.773438 41.917969 111.609375 42.933594 C 103.488281 45.539062 96.222656 49.808594 89.492188 54.96875 C 82.492188 60.332031 76.351562 66.636719 70.53125 73.226562 C 63.726562 80.929688 57.675781 89.21875 52.394531 98.050781 C 48.429688 104.6875 44.726562 111.46875 41.945312 118.695312 C 39.714844 124.503906 37.269531 130.242188 35.785156 136.324219 C 34.527344 141.484375 33.183594 146.617188 32.390625 151.882812 C 30.972656 161.28125 30.664062 170.679688 32.628906 180.027344 C 34.332031 188.140625 37.410156 195.554688 43.875 201.21875 C 46.910156 203.878906 50.179688 206.046875 53.964844 207.40625 C 54.839844 207.71875 55.8125 207.636719 56.742188 207.953125 C 61.832031 209.679688 67.132812 209.515625 72.246094 208.585938 C 76.304688 207.851562 80.324219 206.539062 84.15625 204.792969 C 89.070312 202.554688 93.714844 199.851562 98.109375 196.757812 C 104.910156 191.964844 111.070312 186.40625 116.816406 180.386719 C 117.402344 179.773438 117.515625 179.296875 116.980469 178.476562 C 114.28125 174.335938 111 170.59375 108.617188 166.230469 C 107.867188 164.859375 107.453125 164.84375 106.445312 166.089844 C 105.109375 167.734375 103.769531 169.355469 102.234375 170.824219 C 98.195312 174.683594 94.164062 178.53125 89.605469 181.804688 C 82.890625 186.625 75.839844 190.730469 67.480469 191.800781 C 61.5 192.566406 56.429688 190.761719 52.878906 185.605469 C 49.65625 180.917969 48.757812 175.496094 48.464844 170.042969 C 47.863281 158.929688 50.015625 148.148438 53.226562 137.566406 C 55.089844 131.429688 57.65625 125.550781 60.351562 119.742188 C 62.882812 114.28125 65.691406 108.949219 68.949219 103.886719 C 70.972656 100.742188 72.742188 97.421875 75.097656 94.496094 C 76.917969 92.238281 78.441406 89.742188 80.535156 87.707031 C 80.535156 87.707031 80.550781 87.6875 80.550781 87.6875 C 83.699219 83.675781 87.273438 80.058594 90.746094 76.210938 C 90.925781 76.550781 91.003906 76.632812 91 76.707031 C 90.449219 83.023438 90.523438 89.320312 91.464844 95.601562 C 91.894531 98.460938 92.019531 101.386719 92.714844 104.179688 C 93.410156 106.972656 94.15625 109.765625 94.957031 112.535156 C 97.175781 120.214844 99.828125 127.734375 103.210938 134.988281 C 104.503906 137.753906 105.726562 140.546875 107.175781 143.234375 C 109.371094 147.296875 111.832031 151.210938 114.03125 155.257812 C 117.832031 162.25 122.65625 168.5 127.691406 174.558594 C 130.824219 178.335938 134.304688 181.882812 137.929688 185.25 C 142.757812 189.734375 147.734375 194.054688 153.207031 197.734375 C 158.996094 201.628906 165.089844 204.933594 171.78125 207.125 C 174.222656 207.925781 176.707031 208.511719 179.183594 208.925781 C 183.160156 209.585938 187.21875 209.320312 191.210938 208.679688 C 196.480469 207.835938 201.144531 205.488281 205.222656 202.175781 C 210.523438 197.871094 213.667969 192.007812 215.90625 185.683594 C 217.707031 180.59375 218.292969 175.238281 218.625 169.875 C 219.039062 163.203125 218.445312 156.601562 217.296875 150.007812 C 216.339844 144.488281 215.164062 139.03125 213.496094 133.699219 Z M 199.496094 181.03125 C 196.488281 190.335938 188.296875 193.21875 180.4375 191.488281 C 172.378906 189.71875 165.570312 185.566406 159.011719 180.824219 C 155.871094 178.550781 153.125 175.824219 150.160156 173.351562 C 148.839844 172.25 147.722656 170.765625 146.488281 169.484375 C 138.109375 160.789062 131.230469 150.980469 125.214844 140.566406 C 118.964844 129.75 114.1875 118.273438 110.960938 106.207031 C 108.5 97.007812 107.285156 87.628906 108.089844 78.066406 C 108.542969 72.683594 110.007812 67.585938 113.265625 63.265625 C 115.539062 60.25 118.652344 58.179688 122.636719 57.8125 C 127.628906 57.355469 132.300781 58.089844 135.757812 62.046875 C 138.515625 65.203125 140.351562 68.917969 141.152344 73.105469 C 142.207031 78.636719 142.476562 84.210938 141.914062 89.796875 C 140.773438 101.164062 137.941406 112.113281 133.5 122.644531 C 133.089844 123.613281 132.820312 124.710938 132.265625 125.523438 C 130.410156 128.25 131.34375 130.726562 132.617188 133.210938 C 134.492188 136.871094 136.554688 140.421875 138.714844 143.917969 C 139.125 144.585938 139.464844 145.296875 139.824219 145.988281 C 140.023438 146.375 140.292969 146.734375 140.714844 146.796875 C 141.277344 146.882812 141.3125 146.300781 141.484375 145.96875 C 145.828125 137.53125 149.703125 128.890625 152.773438 119.898438 C 152.847656 119.6875 152.96875 119.492188 153.066406 119.285156 C 153.03125 119.203125 153.039062 119.121094 153.09375 119.046875 C 155.199219 112.683594 156.871094 106.207031 157.945312 99.59375 C 158.933594 93.472656 159.488281 87.308594 159.425781 81.09375 C 159.414062 79.910156 159.609375 79.769531 159.105469 77.582031 C 159.429688 76.652344 159.6875 76.730469 160.167969 77.269531 C 164.292969 81.894531 168.601562 86.339844 172.339844 91.332031 C 176.046875 96.285156 179.519531 101.390625 182.652344 106.675781 C 186.464844 113.105469 190.039062 119.703125 192.667969 126.765625 C 193.546875 129.121094 194.785156 131.382812 195.570312 133.78125 C 198.621094 143.097656 200.929688 152.578125 201.574219 162.40625 C 201.988281 168.738281 201.464844 174.945312 199.496094 181.03125 Z M 199.496094 181.03125 "/>
</g>
</svg>
